usr/share/icons/biglinux-icons-material/scalable/mimetypes/text-x-rpm-spec.svg

<svg width="24" height="24" viewBox="0 0 24 24" fill="none" xmlns="http://www.w3.org/2000/svg">
<rect x="1" y="1" width="22" height="22" rx="6.6" fill="url(#paint0_radial_6_349)"/>
<path d="M6.51602 14.3125C7.47621 14.3125 8.04336 13.7342 8.04336 13.0547C8.04336 12.4539 7.71206 12.1339 7.20671 11.9261L6.66203 11.6958C6.30827 11.5555 6.01066 11.4488 6.01066 11.1512C6.01066 10.876 6.2465 10.7132 6.61148 10.7132C6.95401 10.7132 7.22914 10.8367 7.49308 11.0557L7.91423 10.5335C7.57731 10.191 7.09441 10.0001 6.61152 10.0001C5.76923 10.0001 5.17404 10.5223 5.17404 11.2017C5.17404 11.8081 5.59519 12.1451 6.01633 12.3191L6.57224 12.555C6.94284 12.7122 7.19554 12.8077 7.19554 13.1165C7.19554 13.4085 6.96532 13.5938 6.53293 13.5938C6.16795 13.5938 5.77487 13.4085 5.47729 13.1333L5 13.7061C5.40431 14.0935 5.96011 14.3125 6.51602 14.3125Z" fill="#FF5555"/>
<path d="M8.77372 14.234H9.60477V12.7572H10.1607C11.0535 12.7572 11.7666 12.3305 11.7666 11.3815C11.7666 10.3988 11.0591 10.0788 10.1382 10.0788H8.77376L8.77372 14.234ZM9.60477 12.1003V10.7358H10.0765C10.6492 10.7358 10.9524 10.8986 10.9524 11.3815C10.9524 11.8588 10.6773 12.1003 10.1045 12.1003H9.60477Z" fill="#FF5555"/>
<path d="M12.5243 14.234H15.1353V13.5377H13.3553V12.4259H14.8153V11.7297H13.3553V10.7695H15.0736V10.0788H12.5243V14.234Z" fill="#FF5555"/>
<path d="M17.6748 14.3125C18.2139 14.3125 18.6575 14.0991 19 13.7004L18.562 13.1838C18.3374 13.4253 18.0566 13.5937 17.7029 13.5937C17.0459 13.5937 16.6192 13.0491 16.6192 12.145C16.6192 11.2522 17.0909 10.7131 17.7198 10.7131C18.0342 10.7131 18.2757 10.8591 18.4834 11.0613L18.9214 10.5334C18.6519 10.2527 18.2307 10 17.7029 10C16.6529 10 15.7713 10.803 15.7713 12.1731C15.7713 13.56 16.6248 14.3125 17.6748 14.3125Z" fill="#FF5555"/>
<defs>
<radialGradient id="paint0_radial_6_349" cx="0" cy="0" r="1" gradientUnits="userSpaceOnUse" gradientTransform="translate(17.5 1) rotate(116.565) scale(24.5967)">
<stop stop-color="#F4F4F4"/>
<stop offset="1" stop-color="#BBBBBB"/>
</radialGradient>
</defs>
</svg>

<svg xmlns="http://www.w3.org/2000/svg" width="24" height="24" fill="none"><rect width="22" height="22" x="1" y="1" fill="url(#a)" rx="6.6"/><path fill="#F55" d="M6.516 14.313c.96 0 1.527-.579 1.527-1.258 0-.601-.33-.921-.836-1.129l-.545-.23c-.354-.14-.651-.247-.651-.545 0-.275.236-.438.6-.438.343 0 .618.124.882.343l.421-.522A1.844 1.844 0 0 0 6.612 10c-.843 0-1.438.522-1.438 1.202 0 .606.421.943.842 1.117l.556.236c.37.157.624.253.624.562 0 .291-.23.477-.663.477-.365 0-.758-.185-1.056-.46L5 13.705c.404.388.96.607 1.516.607ZM8.774 14.234h.83v-1.477h.557c.893 0 1.606-.426 1.606-1.375 0-.983-.708-1.303-1.629-1.303H8.774v4.155Zm.83-2.134v-1.364h.473c.572 0 .875.163.875.646 0 .477-.275.718-.848.718h-.5ZM12.524 14.234h2.611v-.696h-1.78v-1.112h1.46v-.696h-1.46v-.96h1.719v-.691h-2.55v4.155ZM17.675 14.313c.539 0 .982-.214 1.325-.613l-.438-.516c-.225.241-.505.41-.86.41-.656 0-1.083-.545-1.083-1.449 0-.893.472-1.432 1.1-1.432.315 0 .557.146.764.348l.438-.528c-.27-.28-.69-.533-1.218-.533-1.05 0-1.932.803-1.932 2.173 0 1.387.854 2.14 1.904 2.14Z"/><defs><radialGradient id="a" cx="0" cy="0" r="1" gradientTransform="rotate(116.565 8.441 5.908) scale(24.5967)" gradientUnits="userSpaceOnUse"><stop stop-color="#F4F4F4"/><stop offset="1" stop-color="#BBB"/></radialGradient></defs></svg>
